icons/subtitles.svg

<svg xmlns="http://www.w3.org/2000/svg" viewBox="0 0 512 512"><path d="M482.6 216.7v-81.31c0-31.89-25.5-40.99-38.8-40.7H66.7c-18 0-37.1 10.81-37.1 38.71v232.39c0 23.9 15.8 38.61 38.7 38.61h275l31 31c3.8 3.7 9 5.76 14.4 5.76 5.5 0 10.7-2.06 14.6-5.76l31-31h17.4c14.5 0 31-9.01 31-36.71zm-33 0v143.19c0 5.81 0 11.6-7.7 11.6h-19.3l-35 32.91-32.8-32.91H72.1c-1.3.02-2.5-.21-3.7-.68-1.2-.49-2.3-1.2-3.2-2.11-.9-.9-1.6-1.97-2.1-3.16s-.7-2.46-.7-3.75v-224.6c0-5.79 0-11.6 7.7-11.6h369.7c6.9 0 9.7 5.81 9.7 9.71v81.4z" style="fill:currentcolor" /><path d="M192.2 249.59h-75.6c-2.3-.01-4.5.42-6.6 1.3-2.2.85-4.1 2.13-5.7 3.74-1.5 1.61-2.8 3.53-3.7 5.62-.8 2.1-1.3 4.36-1.3 6.65v.09c0 2.28.4 4.55 1.3 6.65.9 2.11 2.1 4.03 3.6 5.64 1.7 1.62 3.6 2.9 5.7 3.79 2.1.87 4.3 1.32 6.6 1.32h75.7c3.3.01 6.7-.99 9.6-2.89 2.8-1.9 5.1-4.6 6.4-7.76.8-2.12 1.4-4.37 1.4-6.64v-.11c0-2.29-.5-4.54-1.4-6.67-.9-2.11-2.2-4.03-3.8-5.65s-3.5-2.9-5.6-3.77-4.3-1.32-6.6-1.31M228.8 267.1c0 2.28.4 4.53 1.3 6.65.9 2.11 2.1 4.02 3.7 5.63 1.7 1.62 3.6 2.91 5.7 3.78 2.2.88 4.4 1.34 6.7 1.34h151.1c2.3.01 4.5-.42 6.7-1.3 2.1-.86 3.9-2.13 5.5-3.74s2.9-3.53 3.8-5.62c.8-2.1 1.3-4.37 1.3-6.65v-.09c0-2.29-.4-4.55-1.3-6.65-.8-2.12-2.1-4.03-3.7-5.64-1.6-1.62-3.5-2.9-5.6-3.79-2.1-.87-4.3-1.32-6.6-1.32H244.3c-4.3.42-8.4 2.44-11.2 5.67-2.9 3.23-4.4 7.41-4.3 11.73M321.8 340.6h75.6c2.3.01 4.5-.43 6.7-1.3 2.1-.86 3.9-2.13 5.5-3.74s2.9-3.53 3.8-5.62c.9-2.1 1.3-4.36 1.3-6.65v-.09c0-2.28-.4-4.55-1.3-6.65-.9-2.11-2.1-4.03-3.7-5.64-1.6-1.62-3.5-2.91-5.6-3.79-2.1-.87-4.3-1.32-6.6-1.32h-75.7c-3.4-.01-6.7.99-9.5 2.88-2.9 1.91-5.1 4.61-6.5 7.77-.8 2.11-1.3 4.37-1.3 6.64v.11c0 2.28.4 4.53 1.3 6.65.9 2.11 2.1 4.03 3.7 5.63 1.6 1.62 3.6 2.91 5.7 3.78 2 .88 4.2 1.34 6.5 1.34zM116.5 340.6h153c2.4.01 4.6-.42 6.8-1.3 2.1-.85 4-2.13 5.6-3.74s2.9-3.53 3.8-5.62c.8-2.1 1.2-4.36 1.2-6.65v-.09c0-2.28-.4-4.55-1.2-6.65-.9-2.11-2.1-4.03-3.7-5.64-1.6-1.62-3.5-2.91-5.7-3.79-2.1-.87-4.3-1.32-6.7-1.32H116.5c-3.4-.01-6.8.99-9.6 2.88-2.9 1.91-5 4.61-6.4 7.77-.8 2.11-1.3 4.37-1.3 6.64v.11c0 2.29.4 4.54 1.3 6.67.9 2.1 2.2 4.03 3.7 5.65 1.6 1.62 3.5 2.9 5.6 3.76 2.2.88 4.4 1.33 6.7 1.32" style="fill:currentcolor" /></svg>

<svg width="512" height="512" viewBox="0 0 512 512" fill="none" xmlns="http://www.w3.org/2000/svg">
<path d="M482.6 216.7V135.39C482.6 103.5 457.1 94.3998 443.8 94.6898H66.7001C48.7001 94.6898 29.6001 105.5 29.6001 133.4V365.79C29.6001 389.69 45.4001 404.4 68.3001 404.4H343.3L374.3 435.4C378.1 439.1 383.3 441.16 388.7 441.16C394.2 441.16 399.4 439.1 403.3 435.4L434.3 404.4H451.7C466.2 404.4 482.7 395.39 482.7 367.69L482.6 216.7ZM449.6 216.7V359.89C449.6 365.7 449.6 371.49 441.9 371.49H422.6L387.6 404.4L354.8 371.49H72.1001C70.8001 371.51 69.6001 371.28 68.4001 370.81C67.2001 370.32 66.1001 369.61 65.2001 368.7C64.3001 367.8 63.6001 366.73 63.1001 365.54C62.6001 364.35 62.4001 363.08 62.4001 361.79V137.19C62.4001 131.4 62.4001 125.59 70.1001 125.59H439.8C446.7 125.59 449.5 131.4 449.5 135.3V216.7H449.6Z" fill="white"/>
<path d="M192.2 249.59H116.6C114.3 249.58 112.1 250.01 110 250.89C107.8 251.74 105.9 253.02 104.3 254.63C102.8 256.24 101.5 258.16 100.6 260.25C99.8002 262.35 99.3002 264.61 99.3002 266.9V266.99C99.3002 269.27 99.7002 271.54 100.6 273.64C101.5 275.75 102.7 277.67 104.2 279.28C105.9 280.9 107.8 282.18 109.9 283.07C112 283.94 114.2 284.39 116.5 284.39H192.2C195.5 284.4 198.9 283.4 201.8 281.5C204.6 279.6 206.9 276.9 208.2 273.74C209 271.62 209.6 269.37 209.6 267.1V266.99C209.6 264.7 209.1 262.45 208.2 260.32C207.3 258.21 206 256.29 204.4 254.67C202.8 253.05 200.9 251.77 198.8 250.9C196.7 250.03 194.5 249.58 192.2 249.59ZM228.8 267.1C228.8 269.38 229.2 271.63 230.1 273.75C231 275.86 232.2 277.77 233.8 279.38C235.5 281 237.4 282.29 239.5 283.16C241.7 284.04 243.9 284.5 246.2 284.5H397.3C399.6 284.51 401.8 284.08 404 283.2C406.1 282.34 407.9 281.07 409.5 279.46C411.1 277.85 412.4 275.93 413.3 273.84C414.1 271.74 414.6 269.47 414.6 267.19V267.1C414.6 264.81 414.2 262.55 413.3 260.45C412.5 258.33 411.2 256.42 409.6 254.81C408 253.19 406.1 251.91 404 251.02C401.9 250.15 399.7 249.7 397.4 249.7H244.3C240 250.12 235.9 252.14 233.1 255.37C230.2 258.6 228.7 262.78 228.8 267.1ZM321.8 340.6H397.4C399.7 340.61 401.9 340.17 404.1 339.3C406.2 338.44 408 337.17 409.6 335.56C411.2 333.95 412.5 332.03 413.4 329.94C414.3 327.84 414.7 325.58 414.7 323.29V323.2C414.7 320.92 414.3 318.65 413.4 316.55C412.5 314.44 411.3 312.52 409.7 310.91C408.1 309.29 406.2 308 404.1 307.12C402 306.25 399.8 305.8 397.5 305.8H321.8C318.4 305.79 315.1 306.79 312.3 308.68C309.4 310.59 307.2 313.29 305.8 316.45C305 318.56 304.5 320.82 304.5 323.09V323.2C304.5 325.48 304.9 327.73 305.8 329.85C306.7 331.96 307.9 333.88 309.5 335.48C311.1 337.1 313.1 338.39 315.2 339.26C317.2 340.14 319.4 340.6 321.7 340.6H321.8ZM116.5 340.6H269.5C271.9 340.61 274.1 340.18 276.3 339.3C278.4 338.45 280.3 337.17 281.9 335.56C283.5 333.95 284.8 332.03 285.7 329.94C286.5 327.84 286.9 325.58 286.9 323.29V323.2C286.9 320.92 286.5 318.65 285.7 316.55C284.8 314.44 283.6 312.52 282 310.91C280.4 309.29 278.5 308 276.3 307.12C274.2 306.25 272 305.8 269.6 305.8H116.5C113.1 305.79 109.7 306.79 106.9 308.68C104 310.59 101.9 313.29 100.5 316.45C99.7002 318.56 99.2002 320.82 99.2002 323.09V323.2C99.2002 325.49 99.6002 327.74 100.5 329.87C101.4 331.97 102.7 333.9 104.2 335.52C105.8 337.14 107.7 338.42 109.8 339.28C112 340.16 114.2 340.61 116.5 340.6Z" fill="white"/>
</svg>
